src/icons/svgs/16/chevron-right.svg

<svg width="16" height="16" viewBox="0 0 16 16" fill="none" xmlns="http://www.w3.org/2000/svg">
<path d="M5.90131 1.875C6.1316 1.875 6.362 1.96045 6.5375 2.13135L11.9375 7.38135C12.2891 7.72315 12.2891 8.27686 11.9375 8.61865L6.5375 13.8687C6.18594 14.2104 5.61641 14.2104 5.26484 13.8687C4.91328 13.5269 4.91328 12.9731 5.26484 12.6313L10.0287 8L5.26428 3.36797C4.91272 3.02617 4.91272 2.47246 5.26428 2.13066C5.44006 1.95977 5.67069 1.875 5.90131 1.875Z" fill="black"/>
</svg>

<svg width="16" height="16" viewBox="0 0 16 16" xmlns="http://www.w3.org/2000/svg">
    <path d="M5.901 1.875c.23 0 .461.085.636.256l5.4 5.25a.858.858 0 0 1 0 1.238l-5.4 5.25a.918.918 0 0 1-1.272 0 .858.858 0 0 1 0-1.238L10.029 8 5.264 3.368a.858.858 0 0 1 0-1.237.91.91 0 0 1 .637-.256Z"/>
</svg>
